assets/images/stopwatch.svg

<svg xmlns="http://www.w3.org/2000/svg" width="20" height="20" fill="none" viewBox="0 0 20 20">
    <path fill-rule="evenodd"
        d="M8 1C7.44772 1 7 1.44772 7 2C7 2.55228 7.44772 3 8 3H9V4.07089C5.60771 4.55612 3 7.47353 3 11C3 14.866 6.13401 18 10 18C13.866 18 17 14.866 17 11C17 9.4277 16.4816 7.97648 15.6064 6.80792L16.3641 6.05023C16.7547 5.6597 16.7547 5.02654 16.3641 4.63601C15.9736 4.24549 15.3404 4.24549 14.9499 4.63601L14.1923 5.39368C13.276 4.70742 12.1859 4.24052 11 4.07089V3H12C12.5523 3 13 2.55228 13 2C13 1.44772 12.5523 1 12 1H8ZM10.0005 6.5C10.5527 6.5 11.0005 6.94772 11.0005 7.5V11.0861L12.7074 12.7929C13.0979 13.1834 13.098 13.8165 12.7075 14.2071C12.317 14.5976 11.6838 14.5977 11.2932 14.2071L9.29294 12.2071C9.08996 12.0041 8.99247 11.7357 9.00045 11.4697V7.5C9.00045 6.94772 9.44817 6.5 10.0005 6.5Z"
        clip-rule="evenodd" />
</svg>

<?xml version="1.0" encoding="utf-8"?>
<!-- Generator: Adobe Illustrator 28.1.0, SVG Export Plug-In . SVG Version: 6.00 Build 0)  -->
<svg version="1.1" id="Layer_1" xmlns="http://www.w3.org/2000/svg" xmlns:xlink="http://www.w3.org/1999/xlink" x="0px" y="0px"
	 viewBox="0 0 20 20" style="enable-background:new 0 0 20 20;" xml:space="preserve">
<style type="text/css">
	.st0{fill-rule:evenodd;clip-rule:evenodd;}
</style>
<path class="st0" d="M8,1C7.448,1,7,1.448,7,2s0.448,1,1,1h1v1.071C5.608,4.556,3,7.474,3,11c0,3.866,3.134,7,7,7
	c3.866,0,7-3.134,7-7c0-1.572-0.518-3.024-1.394-4.192l0.758-0.758c0.391-0.391,0.391-1.024,0-1.414
	c-0.39-0.391-1.024-0.391-1.414,0l-0.758,0.758C13.276,4.707,12.186,4.241,11,4.071V3h1c0.552,0,1-0.448,1-1s-0.448-1-1-1H8z
	 M10,6.5c0.552,0,1,0.448,1,1v3.586l1.707,1.707c0.391,0.391,0.391,1.024,0,1.414c-0.391,0.391-1.024,0.391-1.414,0l-2-2
	C9.09,12.004,8.992,11.736,9,11.47V7.5C9,6.948,9.448,6.5,10,6.5z"/>
</svg>
